X:1
T:Hear the Angels Singing
T:Hear the Angels Singing
T:Charles Austin Miles
T:Charles Austin Miles, 1900
T:Public Domain Courtesy of the Cyber Hymnal™
T:Public Domain Courtesy of the Cyber Hymnal™
C:Charles Austin Miles
Z:Public Domain
Z:Courtesy of the Cyber Hymnal™
%%score ( 1 2 ) 3
L:1/8
Q:1/4=102
M:4/4
K:Bb
V:1 treble 
V:2 treble 
V:3 bass 
V:1
"^In Unison, March Time" B3 z FDFBc | d4 [DF]2 B4 [DF]2 | c3 z BAGFE | G4 F4 | B3 z FDFBc | %5
w: 1.~Lo! an an- gel host des-|cend- ing Thro’ the|* star- ry sky so blue;|Shep- herds|low in fear are bend- ing,|
w: 2.~“Glo- ry in the high- est|glo- ry! Un- to|* you a child is born”;|Tell to|all the won- drous sto- ry|
w: 3.~Still the an- gel host is|sing- ing; O’er the|* hills the notes re- sound;|Joy to|all the na- tions bring- ing,|
 d4 [DG]2 B4 [DG]2 | dc=Bc [_Ed]2 [Ec]2 | [Ec]6 z2 ||"^Girls" d3 z ddded | d4 [DG]2 G4 | %10
w: List- ening to the|* sto- ry true. ~ ~|~|~ ~ ~ ~ ~ ~|~ ~ ~|
w: Of His birth this|* ho- ly morn. “See! His|star|is shin- ing o’er you, And|the way is|
w: Where the curse of|* sin is found. ~ ~|~|~ ~ ~ ~ ~ ~|~ ~ ~|
 c3 z cccdc | B4 F4 | B3 z BBBAG | [DF]2 [DB]2 [Ff]2 [Ge]2 | [Fd]3 [DB] [Fd]2 [Ec]2 | [DB]6 z2 |: %16
w: ~ ~ ~ ~ ~ ~|~ ~|~ ~ ~ ~ ~ ~|~ ~ ~ ~|~ Hear the an-|gels|
w: bright be- fore you; Go and|seek the|prom- ised Sav- ior Born to-|day in Beth- le-|hem.” * * *||
w: ~ ~ ~ ~ ~ ~|~ ~|~ ~ ~ ~ ~ ~|~ ~ ~ ~|~ Hear the an-|gels|
"^Chorus" [FB]3 [Fc] [Fd]2 F2 | [EG] [EB]3 ([eg] [eb]3) | [Fc]3 [Fd] [Fe]2 [Fc]2 | %19
w: sing- ing, As their|flight they’re * *|wing- ing, “Glo- ry|
w: |||
w: sing- ing, Hear the|glad notes * *|ring- ing ~ ~|
 A [Fc]3 ([fa] [fc']3) |1 [Ff]3 [Ff] [Fe]2 [Fd]2 | [Gc]2 [EG]2 [=EA]2 [EB]2 | %22
w: in the * *|high- est! Glo- ry|be to God on|
w: |||
w: ~ ~ * *|~ ~ ~ ~|~ ~ ~ ~|
 [=Ed]3 [Ec] [Ed]2 [Ec]2 | ([Fc]2 c'd'e'c'af) :|2 [Ff]3 [Ff] [Fe]2 [Fd]2 || %25
w: high!” * * *|||
w: |||
w: ~ “Glo- ry in|the * * * * * *|high- est! Glo- ry|
 [Gc]2 [EG]2 [=EA]2 [EB]2 | [Ff]3 [GBe] [FBd]2 [EFc]2 | [DFB]6 z2 |] %28
w: |||
w: |||
w: be to God on|high!” * * *||
V:2
 ([DF]2 [DF]2 D2) [DF]2 x | [DF]2 [DF]2 x8 | (E2 E2) E2 E2 x | (^C2 C2 D2 D2) | %4
 ([DF]2 [DF]2 D2) [DF]2 x | [DG]2 [DG]2 x8 | =E2 E2 x4 | x8 || (F2 F2) ^F2 F2 x | %9
 ([DG]2 D2 D2) x4 | (=E2 E2) E2 E2 x | (E2 E2) (E2 E2) | (D2 D2) ^C2 C2 x | x8 | x8 | x8 |: x6 F2 | %17
 x8 | x8 | x8 |1 x8 | x8 | x8 | x8 :|2 x8 || x8 | x8 | x8 |] %28
V:3
 [B,,B,]2 [B,,B,]2 [B,,B,]2 [B,,B,]2 x | [B,,B,]2 [B,,B,]2 [B,,B,]2 [B,,B,]2 x4 | %2
 [F,A,]2 [F,A,]2 [F,A,]2 [F,A,]2 x | [B,,=E,]2 [B,,E,]2 [B,,F,]2 [B,,F,]2 | %4
 [B,,B,]2 [B,,B,]2 [B,,B,]2 [B,,B,]2 x | [G,B,]2 [G,B,]2 [G,B,]2 [G,B,]2 x4 | %6
 [C,B,]2 [C,B,]2 [C,B,]2 [C,B,]2 | ([F,A,]2 [F,,F,]2 [G,,G,]2 [A,,A,]2) || %8
 [B,D]2 [B,D]2 [A,C]2 [A,C]2 x | [G,B,]2 [G,B,]2 [G,B,]2 [G,B,]2 x2 | %10
 [C,B,]2 [C,B,]2 [C,B,]2 [C,B,]2 x | [F,A,]2 [F,A,]2 [F,A,]2 [F,A,]2 | %12
 [B,,F,]2 [B,,F,]2 [B,,=E,]2 [B,,E,]2 x | [B,,F,]2 [B,,F,]2 [D,B,]2 [E,B,]2 | %14
 [F,B,]3 [F,B,] [F,B,]2 [F,A,]2 | [B,,B,]6 z2 |: [B,D]3 [B,D] [B,D]2 [B,D]2 | %17
 [E,B,] [E,G,]3[K:treble] ([EB] [EG]3) | [F,A,]3 [F,B,] [F,C]2 [F,A,]2 | %19
 [F,C] [F,A,]3[K:treble] ([Fc] [FA]3) |1 [B,D]3 [B,D] [A,C]2 [B,D]2 | %21
 [E,E]2 [E,B,]2 [G,B,]2 [G,B,]2 | [C,B,]3 [C,B,] [C,B,]2 [C,B,]2 | [F,A,]2 z6 :|2 %24
 [B,D]3 [B,D] [A,C]2 [B,D]2 || [E,E]2 [E,B,]2 [G,B,]2 [G,C]2 | [F,B,D]3 [E,B,] [F,B,]2 [F,A,]2 | %27
 [B,,B,]6 z2 |] %28

